X:1
T:Trip to Ranelagh THO1.001
M:12/8
L:1/8
Z:vmp. Peter Dunk 2012.from a transcription by Fynn Titford-Mock 2006
B:Thompson's Compleat Collection of 200 Favourite Country Dances Vol.I,1758
Q:3/8=100
K:D
a2 g fed ced cBA|dcB AGF GAG FED|fag fed ced cBA|fed cea cdB A3:|
|:e2 d cBA GFE D3|f2 e dcB A^GF E3|a2 g fed gab a2 g|fed Adc d3D3:|
|:aAa gGg fdf e3|AFA GEG FDF E2 g/a//b//|agf edc d3B3|Acd FGE D3D3:|

